assets/icons/partly-cloudy.svg

<?xml version="1.0" encoding="UTF-8"?>
<svg width="24px" height="24px" viewBox="0 0 24 24" version="1.1" xmlns="http://www.w3.org/2000/svg" xmlns:xlink="http://www.w3.org/1999/xlink">
    <!-- Generator: Sketch 53.2 (72643) - https://sketchapp.com -->
    <title>Icon/Weather/Partly Cloudy</title>
    <desc>Created with Sketch.</desc>
    <g id="Icon/Weather/Partly-Cloudy" stroke="none" stroke-width="1" fill="none" fill-rule="evenodd">
        <path d="M0,17.3283582 C0,18.1343284 0.179104478,18.8507463 0.626865672,19.5671642 C1.07462687,20.2835821 1.52238806,20.8208955 2.23880597,21.1791045 C2.95522388,21.5373134 3.67164179,21.8059701 4.47761194,21.8059701 L14.1492537,21.8059701 C14.9552239,21.8059701 15.6716418,21.6268657 16.3880597,21.1791045 C17.1044776,20.7313433 17.641791,20.2835821 18,19.5671642 C18.358209,18.8507463 18.6268657,18.1343284 18.6268657,17.3283582 C18.6268657,16.7014925 18.5373134,16.1641791 18.2686567,15.5373134 C18.9850746,14.7313433 19.2537313,13.7462687 19.2537313,12.5820896 C19.2537313,11.9552239 19.1641791,11.3283582 18.8955224,10.7910448 C18.6268657,10.2537313 18.358209,9.71641791 17.9104478,9.26865672 C17.4626866,8.82089552 17.0149254,8.46268657 16.3880597,8.28358209 C15.8507463,8.01492537 15.2238806,7.92537313 14.5970149,7.92537313 C13.2537313,7.92537313 12.0895522,8.46268657 11.1044776,9.44776119 C10.3880597,9.08955224 9.58208955,8.82089552 8.68656716,8.82089552 C7.43283582,8.82089552 6.35820896,9.17910448 5.37313433,9.98507463 C4.3880597,10.7910448 3.76119403,11.7761194 3.49253731,13.0298507 C2.50746269,13.2985075 1.70149254,13.7462687 1.07462687,14.5522388 C0.447761194,15.358209 0,16.3432836 0,17.3283582 Z M1.52238806,17.3283582 C1.52238806,16.6119403 1.79104478,15.8955224 2.23880597,15.358209 C2.7761194,14.8208955 3.40298507,14.4626866 4.11940299,14.3731343 L4.56716418,14.3731343 C4.65671642,14.3731343 4.74626866,14.2835821 4.74626866,14.1940299 L4.8358209,13.7462687 C4.92537313,12.761194 5.37313433,11.9552239 6.08955224,11.3283582 C6.80597015,10.7014925 7.6119403,10.3432836 8.59701493,10.3432836 C9.58208955,10.3432836 10.4776119,10.7014925 11.1940299,11.3283582 C11.9104478,11.9552239 12.358209,12.761194 12.4477612,13.7462687 L12.5373134,14.2835821 C12.5373134,14.3731343 12.6268657,14.4626866 12.7164179,14.4626866 L14.1492537,14.4626866 C14.9552239,14.4626866 15.5820896,14.7313433 16.2089552,15.358209 C16.7462687,15.8955224 17.1044776,16.6119403 17.1044776,17.4179104 C17.1044776,18.2238806 16.8358209,18.9402985 16.2089552,19.4776119 C15.6716418,20.0149254 14.9552239,20.3731343 14.1492537,20.3731343 L4.3880597,20.3731343 C3.58208955,20.3731343 2.95522388,20.1044776 2.32835821,19.4776119 C1.79104478,18.8507463 1.52238806,18.1343284 1.52238806,17.3283582 Z M7.52238806,6.31343284 C7.52238806,6.49253731 7.6119403,6.67164179 7.70149254,6.85074627 L8.32835821,7.3880597 C8.50746269,7.56716418 8.7761194,7.65671642 8.86567164,7.56716418 C9.04477612,7.56716418 9.2238806,7.47761194 9.40298507,7.29850746 C9.58208955,7.11940299 9.58208955,6.94029851 9.58208955,6.76119403 C9.58208955,6.58208955 9.49253731,6.49253731 9.31343284,6.40298507 L8.7761194,5.7761194 C8.59701493,5.59701493 8.41791045,5.59701493 8.23880597,5.59701493 C8.05970149,5.59701493 7.88059701,5.68656716 7.70149254,5.86567164 C7.6119403,5.95522388 7.52238806,6.13432836 7.52238806,6.31343284 Z M12.2686567,10.3432836 C12.8955224,9.71641791 13.6119403,9.44776119 14.4179104,9.44776119 C15.3134328,9.44776119 16.0298507,9.71641791 16.6567164,10.3432836 C17.2835821,10.9701493 17.5522388,11.6865672 17.5522388,12.5820896 C17.5522388,13.119403 17.3731343,13.6567164 17.1044776,14.1940299 C16.2089552,13.2985075 15.2238806,12.9402985 13.9701493,12.9402985 L13.7910448,12.9402985 C13.6119403,11.9552239 13.0746269,11.0597015 12.2686567,10.3432836 Z M13.7014925,5.59701493 C13.7014925,5.86567164 13.7910448,6.04477612 13.880597,6.13432836 C13.9701493,6.2238806 14.238806,6.31343284 14.4179104,6.31343284 C14.6865672,6.31343284 14.8656716,6.2238806 14.9552239,6.13432836 C15.1343284,5.95522388 15.1343284,5.7761194 15.1343284,5.59701493 L15.1343284,3.71641791 C15.1343284,3.53731343 15.0447761,3.35820896 14.9552239,3.17910448 C14.8656716,3 14.6865672,3 14.5074627,3 C14.3283582,3 14.1492537,3.08955224 13.9701493,3.17910448 C13.7910448,3.26865672 13.7910448,3.53731343 13.7910448,3.71641791 L13.7014925,5.59701493 L13.7014925,5.59701493 Z M18.7164179,7.65671642 C18.7164179,7.92537313 18.8059701,8.10447761 18.8955224,8.19402985 C19.0746269,8.37313433 19.2537313,8.37313433 19.4328358,8.37313433 C19.6119403,8.37313433 19.7910448,8.28358209 19.9701493,8.19402985 L21.2238806,6.94029851 C21.4029851,6.76119403 21.4029851,6.58208955 21.4029851,6.40298507 C21.4029851,6.2238806 21.3134328,6.04477612 21.2238806,5.86567164 C21.0447761,5.68656716 20.8656716,5.68656716 20.6865672,5.68656716 C20.5074627,5.68656716 20.3283582,5.7761194 20.1492537,5.86567164 L18.8059701,7.11940299 C18.7164179,7.20895522 18.7164179,7.3880597 18.7164179,7.65671642 Z M19.3432836,18.2238806 C19.3432836,18.4029851 19.4328358,18.6716418 19.5223881,18.761194 L20.0597015,19.2985075 C20.1492537,19.4776119 20.3283582,19.4776119 20.5970149,19.4776119 C20.8656716,19.4776119 20.9552239,19.3880597 21.1343284,19.2985075 C21.3134328,19.2089552 21.3134328,18.9402985 21.3134328,18.761194 C21.3134328,18.5820896 21.2238806,18.4029851 21.1343284,18.2238806 L20.5970149,17.6865672 C20.4179104,17.5074627 20.238806,17.5074627 20.0597015,17.5074627 C19.880597,17.5074627 19.7014925,17.5970149 19.5223881,17.6865672 C19.4328358,17.8656716 19.3432836,18.0447761 19.3432836,18.2238806 Z M20.6865672,12.5820896 C20.6865672,12.761194 20.7761194,12.9402985 20.9552239,13.119403 C21.1343284,13.2985075 21.3134328,13.2985075 21.4925373,13.2985075 L23.2835821,13.2985075 C23.4626866,13.2985075 23.641791,13.2089552 23.8208955,13.119403 C24,13.0298507 24,12.761194 24,12.5820896 C24,12.4029851 23.9104478,12.2238806 23.8208955,12.0447761 C23.7313433,11.8656716 23.4626866,11.8656716 23.2835821,11.8656716 L21.4925373,11.8656716 C21.3134328,11.8656716 21.1343284,11.9552239 20.9552239,12.0447761 C20.7761194,12.2238806 20.6865672,12.4029851 20.6865672,12.5820896 Z" id="Shape" fill="#000000"></path>
    </g>
</svg>

<svg class="ucla-icon partly-cloudy" width="24" height="24" viewBox="0 0 24 24" aria-labelledby="icon-partly-cloudy" role="img"><title id="icon-partly-cloudy">Icon Weather/Partly Cloudy</title><g fill="none" fill-rule="evenodd"><path d="M0 17.328c0 .806.18 1.523.627 2.24.448.716.895 1.253 1.612 1.611.716.358 1.433.627 2.239.627h9.671c.806 0 1.523-.18 2.24-.627.715-.448 1.253-.895 1.611-1.612.358-.716.627-1.433.627-2.239 0-.627-.09-1.164-.358-1.79.716-.807.985-1.792.985-2.956 0-.627-.09-1.254-.358-1.791-.27-.537-.538-1.075-.986-1.522-.447-.448-.895-.806-1.522-.985-.537-.27-1.164-.359-1.791-.359-1.343 0-2.507.538-3.493 1.523-.716-.358-1.522-.627-2.417-.627-1.254 0-2.329.358-3.314 1.164-.985.806-1.612 1.791-1.88 3.045-.986.269-1.792.716-2.418 1.522C.448 15.358 0 16.343 0 17.328zm1.522 0c0-.716.269-1.432.717-1.97.537-.537 1.164-.895 1.88-.985h.448c.09 0 .18-.09.18-.179l.089-.448c.09-.985.537-1.79 1.254-2.418.716-.627 1.522-.985 2.507-.985.985 0 1.88.358 2.597.985.716.627 1.164 1.433 1.254 2.418l.09.538c0 .09.089.179.178.179h1.433c.806 0 1.433.268 2.06.895.537.538.895 1.254.895 2.06s-.268 1.522-.895 2.06c-.537.537-1.254.895-2.06.895H4.39c-.807 0-1.434-.269-2.06-.895a3.209 3.209 0 0 1-.807-2.15zm6-11.015c0 .18.09.359.18.538l.626.537c.18.18.448.269.538.18.179 0 .358-.09.537-.27.18-.179.18-.358.18-.537 0-.179-.09-.268-.27-.358l-.537-.627c-.179-.179-.358-.179-.537-.179-.18 0-.358.09-.538.269a.684.684 0 0 0-.179.447zm4.747 4.03c.627-.627 1.343-.895 2.149-.895.895 0 1.612.268 2.239.895.627.627.895 1.344.895 2.24 0 .536-.179 1.074-.448 1.611-.895-.895-1.88-1.254-3.134-1.254h-.179c-.18-.985-.716-1.88-1.522-2.597zM13.7 5.597c0 .269.09.448.18.537.09.09.358.18.537.18.269 0 .448-.09.537-.18.18-.179.18-.358.18-.537v-1.88c0-.18-.09-.359-.18-.538C14.865 3 14.687 3 14.507 3c-.179 0-.358.09-.537.18-.179.089-.179.357-.179.536l-.09 1.881zm5.015 2.06c0 .268.09.447.18.537.179.18.358.18.537.18.179 0 .358-.09.537-.18l1.254-1.254c.179-.179.179-.358.179-.537 0-.18-.09-.358-.18-.537-.178-.18-.357-.18-.536-.18-.18 0-.359.09-.538.18l-1.343 1.253c-.09.09-.09.27-.09.538zm.627 10.567c0 .179.09.448.18.537l.537.538c.09.179.268.179.537.179s.358-.09.537-.18c.18-.089.18-.358.18-.537 0-.179-.09-.358-.18-.537l-.537-.537c-.18-.18-.358-.18-.537-.18-.18 0-.359.09-.538.18-.09.179-.179.358-.179.537zm1.344-5.642c0 .18.09.358.268.537.18.18.358.18.538.18h1.79c.18 0 .359-.09.538-.18.179-.09.179-.358.179-.537 0-.179-.09-.358-.18-.537-.089-.18-.357-.18-.536-.18h-1.791c-.18 0-.359.09-.538.18-.179.179-.268.358-.268.537z" id="Shape" fill="#000"/></g></svg>
